!!!!SEGMENT: pl-wtm--r-775-m_moniuszko-stanislaw--illumine-occulos-meos.krn
!!!cenid: 18xx:2720
!!!COM: Moniuszko, Stanisław
!!!COM-rismID:
!!!CDT: 1819/05/05-1872/06/04
!!!CNT: Polish
!!!OTL: Illumine occulos meos
!!!PDT:
!!!AGN: Sacred
!!!SMS-siglum: PL-Wtm
!!!SMS-shelfmark: R 775/M
!!!SMS-shelfwork: W
!!!SMS-variant:
!!!SMS-altvar:
!!!NIFC-rismSourceID: 1001084471
!!!NIFC-islandoraID:
!!!URL-pdf-islandora:
!!!URL-scan:
!!!ONB-nifc:
!!!OMD: Andantino.
!!!AIN: 1 alto 1 empty 1 soprn
!!!key:
**kern	**kern	**dynam	**kern	**dynam	**kern	**text	**dynam
*group2	*group2	*	*group1	*	*group1	*	*
*part3	*part3	*part3	*part2	*part2	*part1	*part1	*part1
*staff4	*staff3	*	*staff2	*	*staff1	*staff1	*
*Iempty	*Iempty	*	*Ialto	*	*Isoprn	*	*
*	*	*	*I"Alto Solo	*	*I"Soprano Solo.	*	*
*clefF4	*clefG2	*	*clefG2	*	*clefG2	*	*
*k[b-]	*k[b-]	*	*k[b-]	*	*k[b-]	*	*
*g:	*g:	*	*g:	*	*g:	*	*
*M2/4	*M2/4	*	*M2/4	*	*M2/4	*	*
*all\right	*all\right	*	*all\right	*	*all\right	*	*
*2\right	*2\right	*	*2\right	*	*2\right	*	*
=1	=1	=1	=1	=1	=1	=1	=1
*^	*	*	*	*	*	*	*
!!LO:TX:t=P:problem:błędne znaki przykluczowe, prawidłowe dopiero od t. 7
2rA	[2GG\	2r	.	2r	.	2r	.	.
=2	=2	=2	=2	=2	=2	=2	=2	=2
!	!	!	!LO:DY:t=pp.	!	!	!	!	!
8G/	2GG\_	4r	pp	2r	.	2r	.	.
8ryy	.	.	.	.	.	.	.	.
8E/L	.	(>8G/L	.	.	.	.	.	.
8C/J	.	8A/J	.	.	.	.	.	.
=3	=3	=3	=3	=3	=3	=3	=3	=3
8D/L	2GG\_	8Bn/L	.	2r	.	2r	.	.
8F/	.	8d/	.	.	.	.	.	.
8En/	.	8c#X/	.	.	.	.	.	.
8G/J	.	8en/J	.	.	.	.	.	.
=4	=4	=4	=4	=4	=4	=4	=4	=4
8F#X/L	2GG\_	8d#X/L	.	2r	.	2r	.	.
8A/	.	8cn/	.	.	.	.	.	.
8G/	.	8Bn/	.	.	.	.	.	.
8Fn/J	.	8dn/J	.	.	.	.	.	.
=5	=5	=5	=5	=5	=5	=5	=5	=5
8En/L	2GG\_	8c#X/L	.	2r	.	2r	.	.
8G/	.	8B-X/	.	.	.	.	.	.
8F#X/	.	8A/	.	.	.	.	.	.
8E/J	.	8c#/J	.	.	.	.	.	.
=6	=6	=6	=6	=6	=6	=6	=6	=6
!LO:TX:a:t=ralent	!	!	!	!	!	!	!	!
8D#X/L	2GG\]	8Bn/L	.	2r	.	2r	.	.
8Dn/	.	8B-X/	.	.	.	.	.	.
8C#X/	.	8A/	.	.	.	.	.	.
8Cn/J	.	8A-X/J)	.	.	.	.	.	.
!!LO:LB:g=original
=7	=7	=7	=7	=7	=7	=7	=7	=7
*k[b-e-]	*k[b-e-]	*k[b-e-]	*	*k[b-e-]	*	*k[b-e-]	*	*
8BB-/L	2GG\	8G/L	.	2r	.	2r	.	.
16D/L	.	8B-/	.	.	.	.	.	.
16G/JJ	.	.	.	.	.	.	.	.
8B-/L	.	8d/	.	.	.	.	.	.
8G/J	.	8g/J	.	.	.	.	.	.
=8	=8	=8	=8	=8	=8	=8	=8	=8
4B-;/	2r	4b-;/	.	8r	.	8r	.	.
.	.	.	.	(4b-;\	.	(4dd;\	Ex-	.
4r	.	4r	.	.	.	.	.	.
.	.	.	.	8a/)	.	8cc\)	.	.
*v	*v	*	*	*	*	*	*	*
=9	=9	=9	=9	=9	=9	=9	=9
4GG\	8r<	.	(4g/	.	(4b-/	-au-	.
.	8D</L	.	.	.	.	.	.
4r	8d</	.	8f#X/)	.	8a/)	.	.
.	8D</J	.	8en/	.	8g/	-di	.
=10	=10	=10	=10	=10	=10	=10	=10
*rep	*rep	*	*	*	*	*	*
!	!LO:TX:t=P:problem=partia prawej ręki zapisana w dolnej pięciolinii	!	!	!	!	!	!
4GG\	8r<	.	4.f#X/	.	4.a/	me!	.
.	8D</L	.	.	.	.	.	.
4r	8d</	.	.	.	.	.	.
.	8D</J	.	8f#/	.	8a/	ex-	.
*Xrep	*Xrep	*	*	*	*	*	*
=11	=11	=11	=11	=11	=11	=11	=11
*rep	*rep	*	*	*	*	*	*
4GG\	8r<	.	8g/L	.	8b-\L	-au-	.
.	8D</L	.	8a/	.	8cc\	.	.
4r	8d</	.	8b-/J	.	8dd\J	.	.
.	8D</J	.	8g/	.	8b-\	-di	.
*Xrep	*Xrep	*	*	*	*	*	*
=12	=12	=12	=12	=12	=12	=12	=12
*rep	*rep	*	*	*	*	*	*
4GG\	8r<	.	2f#X/	.	2a\	me!	.
.	8D</L	.	.	.	.	.	.
4r	8d</	.	.	.	.	.	.
.	8D</J	.	.	.	.	.	.
*Xrep	*Xrep	*	*	*	*	*	*
=13	=13	=13	=13	=13	=13	=13	=13
!	!	!	!	!LO:HP:a	!	!	!LO:DY:a
4GG\	8r<	.	4g/	<	4b-\	Do-	<
.	8G</L	.	.	.	.	.	.
4r	8d</	.	8a/	.	8cc\	-mi-	.
.	8G</J	.	8b-/	[[	8dd\	-ne	[[
!!LO:LB:g=original
=14	=14	=14	=14	=14	=14	=14	=14
!	!	!	!	!	!	!	!LO:DY:a
4C\	8r<	.	4dd\	.	(4ff\	De-	>
.	8G</L	.	.	.	.	.	.
4r	8c</	.	8cc\	.	8ee-\)	.	]
.	8G</J	.	8b-\	.	8dd\	-us!	.
=15	=15	=15	=15	=15	=15	=15	=15
4FF\	8r<	.	8b-/L	.	8dd\L	De-	.
.	8F</L	.	8a/J	.	8cc\J	.	.
4r	8f\	.	8g/L	.	8b-\L	-us	.
.	8F</J	.	8a/J	.	8cc\J	.	.
=16	=16	=16	=16	=16	=16	=16	=16
*	*^	*	*	*	*	*	*
2BB-\	8r	4ryy	.	4b-/	.	4dd\	me-	.
.	8f/L	.	.	.	.	.	.	.
.	8b-/	4d\	.	8b-/	.	8dd\	-us!	.
.	8a/J	.	.	8a/	.	8ff\	il-	.
=17	=17	=17	=17	=17	=17	=17	=17	=17
!	!LO:TX:t=P:2/left:problem	!	!	!	!	!	!	!
2BB-\	2a-X/	8c\L	.	4a-X/	.	4ff^\	-lu-	.
.	.	8f\	.	.	.	.	.	.
.	.	8c\	.	8a-/	.	8ee-\	-mi-	.
.	.	8B-\J	.	8a-/	.	8dd\	-ne	.
=18	=18	=18	=18	=18	=18	=18	=18	=18
2BB-\	4.g/	8B-\L	.	4g/	.	(8.ee-\L	oc-	.
.	.	8e-\J	.	.	.	.	.	.
.	.	.	.	.	.	16b-\Jk)	.	.
.	.	4B-\	.	8g/	.	8b-\	-cu-	.
.	8g-X/	.	.	8g-X/	.	8ee-\	-los	.
*	*v	*v	*	*	*	*	*	*
=19	=19	=19	=19	=19	=19	=19	=19
*^	*	*	*	*	*	*	*
8r	2FF\	4f 4A/	.	8.f/	.	8.dd\	me-	.
8F/L	.	.	.	.	.	.	.	.
.	.	.	.	16f/	.	16dd\	-os,	.
8A/	.	8.ccL 8.e-/	.	8.e-/	.	8.cc\	Do-	.
[<8F/J	.	.	.	.	.	.	.	.
.	.	16b-Jk 16d/	.	16d/	.	16b-\	-mi-	.
=20	=20	=20	=20	=20	=20	=20	=20	=20
8F/L]	2BB-\	[4b- [4d/	.	4f/	.	4dd\	-ne	.
8F/J	.	.	.	.	.	.	.	.
4B-/	.	8b-]L 8d/]	.	8f/L	.	8dd\L	ne	.
.	.	8f/J	.	8g/J	.	8ee-\J	.	.
!!LO:PB:g=original
=21	=21	=21	=21	=21	=21	=21	=21	=21
8r	2BB-\	8a-X 8f/	.	8a-X/	.	8ff\	un-	.
(8B-/L	.	4b- 4g/	.	4b-^/	.	4gg^\	-quam	.
8d/	.	.	.	.	.	.	.	.
8B-/J)	.	8a- 8f/	.	8a-/	.	8ff\	ob-	.
=22	=22	=22	=22	=22	=22	=22	=22	=22
8r	2E-\	8.a-XL 8.f/	.	8.a-X/	.	8.ff\	-dor-	.
8B-/L	.	.	.	.	.	.	.	.
.	.	16gJk 16e-/	.	16g/	.	16ee-\	-mi-	.
8e-/	.	8.b-L 8.g/	.	8.g/	.	8b-\	-am,	.
8B-/J	.	.	.	.	.	8cc\	ne	.
.	.	16ccJk 16b- 16a-X/	.	16g-X/	.	.	.	.
=23	=23	=23	=23	=23	=23	=23	=23	=23
*	*	*^	*	*	*	*	*	*
2B-\	2r	8dd 8b- 8f/	8ryy	.	8f/	.	8dd\	un-	.
!	!	!	!LO:TX:t=P:problem=błędne wyświetlanie łuku	!	!	!	!	!	!
.	.	(4ee 4a^/	(>8a\L	.	4gn^/	.	4ee-^\	-quam	.
.	.	.	8b-\)	.	.	.	.	.	.
.	.	8dd/)	8f\J	.	8f/	.	8dd\	ob-	.
=24	=24	=24	=24	=24	=24	=24	=24	=24	=24
2c\	2r	8.dd/L	8f\L	.	8.f/	.	8.dd\	-do-	.
.	.	.	16g\L	.	.	.	.	.	.
.	.	16cc/Jk	16e-\JJ	.	16e-/	.	16cc\	-rmi-	.
.	.	8gL 8e-/	4ryy	.	8e-/	.	8g/	-am	.
.	.	8aJ 8g/	.	.	8c/	.	8a/	in	.
=25	=25	=25	=25	=25	=25	=25	=25	=25	=25
!	!	!	!	!	!	!LO:HP:a	!	!	!
8r	2rAA	(8b-/L	2g\	.	(8g/L	<	(8b-\L	mor-	<
(8f\L	.	8bn/	.	.	8f/	.	8bn\	.	.
8en\	.	8cc/	.	.	8en/	.	8cc\	.	.
8e-X\J	.	8cc#X/J	.	.	8e-X/J	.	8cc#X\J	.	.
=26	=26	=26	=26	=26	=26	=26	=26	=26	=26
8d\L	2rAA	8dd/L	4.g\	.	8d/L	.	8dd\L	.	.
.	.	.	.	.	.	.	8qff/)	.	.
8c\	.	8ee-/	.	.	8c/J	.	8ee\J	.	.
8B-\)	.	8dd/	.	.	8B-/)	[	8dd\	-te.	[
8c\J	.	8dd/J)	8f#X\	.	8d/	.	8dd\	Ex-	.
*	*	*v	*v	*	*	*	*	*	*
!!LO:LB:g=original
=27	=27	=27	=27	=27	=27	=27	=27	=27
!	!	!	!	!	!LO:DY:a	!	!	!LO:DY:a
4B- 4G\	4r	4dd 4g/	.	[2g/	f	[2gg\	-au-	f
[4B-/	4B- 4E-\	(>4cc#X 4g/	.	.	.	.	.	.
=28	=28	=28	=28	=28	=28	=28	=28	=28
!	!	!	!	!	!LO:HP:a	!	!	!LO:DY:a
4B-/]	4D\	4dd 4g/	.	4..g/]	>	4..gg\]	.	>
4c/	4C\	4g 4e/)	.	.	.	.	.	.
.	.	.	.	16g/	]	16g/	-di	]
=29	=29	=29	=29	=29	=29	=29	=29	=29
[2B-/	[2GG\	[2g [2d/	.	[2g/	.	[2g/	me!	.
=30	=30	=30	=30	=30	=30	=30	=30	=30
8B-/]	2GG\_	8g] 8d/]	.	8g/]	.	8g/]	.	.
8r	.	8r	.	8r	.	8r	.	.
8E-/L	.	(>8G/L	.	4r	.	4r	.	.
8C/J	.	8A/J	.	.	.	.	.	.
=31	=31	=31	=31	=31	=31	=31	=31	=31
8D/L	2GG\_	8Bn/L	.	2r	.	2r	.	.
8F/	.	8d/	.	.	.	.	.	.
8En/	.	8c#X/	.	.	.	.	.	.
8G/J	.	8en/J	.	.	.	.	.	.
=32	=32	=32	=32	=32	=32	=32	=32	=32
8F#X/L	2GG\_	8d#X/L	.	2r	.	2r	.	.
8A/	.	8cn/	.	.	.	.	.	.
8G/	.	8Bn/	.	.	.	.	.	.
8Fn/J	.	8dn/J	.	.	.	.	.	.
!!LO:PB:g=original
=33	=33	=33	=33	=33	=33	=33	=33	=33
8En/L	2GG\_	8c#X/L	.	2r	.	2r	.	.
8G/	.	8B-X/	.	.	.	.	.	.
8F#X/	.	8An/	.	.	.	.	.	.
8E/J	.	8c#/J	.	.	.	.	.	.
=34	=34	=34	=34	=34	=34	=34	=34	=34
8D#X/L	2GG\_	8Bn/L	.	2r	.	2r	.	.
8Dn/	.	8B-X/	.	.	.	.	.	.
8C#X/	.	8A/	.	.	.	.	.	.
8Cn/J	.	8A-X/J	.	.	.	.	.	.
=35	=35	=35	=35	=35	=35	=35	=35	=35
8BB-/L	2GG\]	8G/L	.	2r	.	2r	.	.
16D/L	.	8B-/	.	.	.	.	.	.
16G/JJ	.	.	.	.	.	.	.	.
8B-/L	.	8d/	.	.	.	.	.	.
8G/J	.	8g/J)	.	.	.	.	.	.
=36	=36	=36	=36	=36	=36	=36	=36	=36
4d/	4GG\	4b-/	.	2r	.	2r	.	.
4G/	4GG\	4d 4B-/	.	.	.	.	.	.
=37	=37	=37	=37	=37	=37	=37	=37	=37
2D;/	2GG\	2g 2B-;/	.	2r;	.	2r;	.	.
*v	*v	*	*	*	*	*	*	*
==	==	==	==	==	==	==	==
*-	*-	*-	*-	*-	*-	*-	*-
!!!system-decoration: ([g1]{g2})
!!!RDF**kern: > = above
!!!RDF**kern: < = below
!!!ENC: Andrzej Gręziak
!!!END: 2021-07-24
!!!ENC: Kamil Watkowski
!!!END: 2021-09-06
